X: 6
T:Gan Ainm
R:Reel
S:Deirdre Shannon, Belfast (fiddle)
N:As played
M:4/4
D:Session tape - Ballaghadereen Fleadh, 1977
Z:Bernie Stocks
K:D
d2dc dAFf | gece dBAG | (3.F.E.D AD BDAD | E2 (3.F.E.D EFGA |
d2dc dAFf | gece dBAG | FGAB cdef |1 gece d3A :|2 (3.g.g.e ce d3e |:
fdAG FAde | (3.f.f.d AG FAdf | ge (3.f.f.e edBd | cedB A2de |
fdAG FAde | (3.f.f.d ge cABc | dB{d}BA BAFA |1 GEFE D2de :|2 GEFE D4 ||
<end>
<start>
